X: 2214
Q: "Highland Schottische."
M: C
L: 1/8
K: D
uA>uF |\
vD2uD>uF vA2uA>uB | d>ef>e (e<d)d>B |\
uA2 |\
vd2uf>ue (e<d)d>A | B2d>B (A<F)F>G |\
(A<F){F}E>D vD<dd>uB | (A<F)F>D E2(f>g) |\
va>ug f/e/d/c (e<d)d>A | B(g/f/) e/d/c/B/ A2F>G |\


